X:417
T: Gnral Bertrand (136a), S. 307f
N: T0305
O: Luxemburg
S: Singendes Volk, Esch-Alzette 1937, posth.]
N: Fels, hhh Johann Olinger, 1896
R: historische, Kriegs- und Soldatenlieder]
M: 4/4
L: 1/8
K: C
CEF | G3GGGAG | G2F2z
FGF | E3EEDGF | D4z
DDG | G3GGGAB | B2A2z
AAB | D3GGG^FA | G4z
GGG | d3dcBAG | Gcc2z
GAB | c3EAGFE | D4z
GGF | E3EFEGD | AGG2z
cBA | G3GAGFD | E4z
GGF | E3EFEFD | AGG2z
cBA | G3GAGFD | C4z

@@@ Tune index: 8471
